X:1
T:Kiley's -- Reel
R:reel
B:Ryan's Mammoth Collection
N: 243
Z: Contributed by Ray Davies,  ray:davies99.freeserve.co.uk
M:2/4
L:1/16
K:A
uE2|\
Aceg agfe | dcBA (GB).E2 | .B2(GB) (EG).B2 | cBAc BAGB |
Aceg agfe | dcBA (GB).E2 | .B2(GB) (EG).B2 | {c}BAGB A2:|
|:uE2|\
"0".e2(ce) "0".e2(c"4"e) | .f2(df) .f2(df) |\
.e2(ce) .e2(ce) | .B2(GB) .B2(GB) |
.e2(ce) .e2(ce) | .f2(df) .f2(df) |\
Ac"0"eg {b}agaf | "0"edcB A2 :|
